azure-patterns/svg-curved-arrows.svg

<svg xmlns="http://www.w3.org/2000/svg" viewBox="0 0 48 48">
                                
                            
  <path d="M17.3933 0.113878L3.63464 3.99736L13.9342 13.8226L14.7893 10.4439C19.4533 13.473 22.3682 18.6381 22.3682 24.2303L29.6363 24.2303C29.6363 15.3371 24.5836 7.18181 16.6549 3.14299L17.3933 0.113878Z" fill="#50E6FF"></path>
  <path d="M35.3494 3.14581C27.4207 7.22347 22.368 15.3399 22.368 24.2331C22.368 37.3593 33.134 48 46.4263 48L46.4263 40.7379C37.1761 40.7379 29.6361 33.3204 29.6361 24.2331C29.6361 18.6409 32.551 13.4759 37.215 10.4468L38.0312 13.8254L48.3308 4.00018L34.5721 0.116699L35.3494 3.14581Z" fill="#0078D4"></path>
</svg>

<svg xmlns="http://www.w3.org/2000/svg" viewBox="0 0 48 48"><path d="M17.393.114L3.635 3.997l10.3 9.826.854-3.38c4.664 3.03 7.58 8.195 7.58 13.787h7.267c0-8.893-5.052-17.048-12.981-21.087l.738-3.03z" fill="#50E6FF"/><path d="M35.35 3.146C27.42 7.223 22.367 15.34 22.367 24.233 22.368 37.36 33.134 48 46.426 48v-7.262c-9.25 0-16.79-7.418-16.79-16.505 0-5.592 2.915-10.757 7.579-13.786l.816 3.378L48.331 4 34.572.117l.777 3.029z" fill="#0078D4"/></svg>
